;FLAVOR:Marlin
;TIME:11735
;Filament used: 8.71942m
;Layer height: 0.15
;MINX:61.12
;MINY:61.328
;MINZ:0.2
;MAXX:211.122
;MAXY:158.666
;MAXZ:27.05
;TARGET_MACHINE.NAME:Prusa i3 Mk3/Mk3s
;Generated with Cura_SteamEngine 5.8.1
M82 ;absolute extrusion mode
G21 ; set units to millimeters
G90 ; use absolute positioning
M82 ; absolute extrusion mode
M104 S215.0 ; set extruder temp
M140 S60 ; set bed temp
M190 S60 ; wait for bed temp
M109 S215.0 ; wait for extruder temp
G28 W ; home all without mesh bed level
G80 ; mesh bed leveling
G92 E0.0 ; reset extruder distance position
G1 Y-3.0 F1000.0 ; go outside print area
G1 X60.0 E9.0 F1000.0 ; intro line
G1 X100.0 E21.5 F1000.0 ; intro line
G92 E0.0 ; reset extruder distance position
G92 E0
G92 E0
G1 F2100 E-0.8
;LAYER_COUNT:180
;LAYER:0
M107
G0 F3600 X70.86 Y70.659 Z0.2
;TYPE:SKIRT
G1 F2100 E0
G1 F1800 X72.163 Y69.445 E0.05923
G1 X74.325 Y67.703 E0.15158
G1 X76.051 Y66.51 E0.22136
G1 X77.972 Y65.367 E0.29571
G1 X80.417 Y64.147 E0.38659
G1 X82.061 Y63.467 E0.44577
G1 X84.652 Y62.603 E0.53661
G1 X86.934 Y62.028 E0.61488
G1 X88.772 Y61.694 E0.67701
G1 X91.654 Y61.391 E0.7734
G1 X93.679 Y61.328 E0.84078
G1 X108.64 Y61.329 E1.33839
G1 X110.759 Y61.417 E1.40893
G1 X113.251 Y61.697 E1.49233
G1 X115.088 Y62.031 E1.55443
G1 X117.287 Y62.584 E1.62985
G1 X119.799 Y63.413 E1.71783
G1 X121.76 Y64.226 E1.78844
G1 X123.895 Y65.291 E1.86779
G1 X126.025 Y66.562 E1.95029
G1 X127.997 Y67.944 E2.03038
G1 X129.625 Y69.261 E2.10003
G1 X130.882 Y70.433 E2.15719
G1 X131.643 Y68.748 E2.21868
G1 X132.004 Y68.214 E2.24012
G1 X133.516 Y66.737 E2.31042
G1 X135.669 Y65.44 E2.39402
G1 X137.911 Y65.002 E2.47
G1 X143.704 Y65.066 E2.66269
G1 X145.401 Y65.346 E2.7199
G1 X147.524 Y66.393 E2.79863
G1 X149.336 Y68.023 E2.87969
G1 X150.666 Y70.329 E2.96823
G1 X150.96 Y72.28 E3.03385
G1 X150.983 Y76.4 E3.17089
G1 X158.312 Y76.399 E3.41465
G1 X158.359 Y71.066 E3.59203
G1 X158.57 Y69.735 E3.63686
G1 X159.581 Y67.462 E3.7196
G1 X161.331 Y65.741 E3.80123
G1 X163.523 Y64.422 E3.88632
G1 X165.726 Y64.002 E3.96091
G1 X176.208 Y64.087 E4.30956
G1 X177.707 Y64.349 E4.36017
G1 X179.822 Y65.392 E4.4386
G1 X181.633 Y67.021 E4.51962
G1 X182.965 Y69.331 E4.60831
G1 X183.259 Y71.275 E4.6737
G1 X183.282 Y76.399 E4.84413
G1 X190.614 Y76.4 E5.08799
G1 X190.659 Y72.066 E5.23215
G1 X190.87 Y70.735 E5.27697
G1 X191.881 Y68.462 E5.35971
G1 X193.631 Y66.741 E5.44135
G1 X195.823 Y65.422 E5.52644
G1 X198.034 Y65.002 E5.60129
G1 X204.063 Y65.073 E5.80183
G1 X205.38 Y65.285 E5.8462
G1 X207.67 Y66.304 E5.92956
G1 X209.366 Y68.027 E6.00997
G1 X210.694 Y70.228 E6.09547
G1 X211.119 Y72.399 E6.16905
G1 X211.052 Y91.453 E6.80279
G1 X210.84 Y92.787 E6.84772
G1 X210.05 Y94.559 E6.91225
G1 X208.771 Y96.198 E6.98139
G1 X207.99 Y96.825 E7.01471
G1 X206.078 Y97.928 E7.08812
G1 X203.903 Y98.365 E7.16191
G1 X198.231 Y98.364 E7.35056
G1 X198.232 Y124.35 E8.21486
G1 X203.945 Y124.349 E8.40487
G1 X206.003 Y124.772 E8.47475
G1 X207.882 Y125.838 E8.54661
G1 X208.774 Y126.538 E8.58432
G1 X209.865 Y127.895 E8.64223
G1 X210.866 Y129.915 E8.71721
G1 X211.122 Y132.159 E8.79233
G1 X211.048 Y150.648 E9.40728
G1 X210.835 Y151.988 E9.45241
G1 X209.942 Y153.966 E9.5246
G1 X209.581 Y154.5 E9.54603
G1 X208.069 Y155.977 E9.61634
G1 X205.916 Y157.274 E9.69993
G1 X203.676 Y157.713 E9.77585
G1 X197.652 Y157.641 E9.97623
G1 X196.321 Y157.43 E10.02105
G1 X194.048 Y156.419 E10.10379
G1 X192.327 Y154.669 E10.18543
G1 X191.007 Y152.477 E10.27053
G1 X190.588 Y150.298 E10.34433
G1 X190.59 Y146.315 E10.47681
G1 X183.274 Y146.315 E10.72014
G1 X183.227 Y151.648 E10.89752
G1 X183.015 Y152.986 E10.94258
G1 X182.042 Y155.174 E11.02222
G1 X181.957 Y155.297 E11.0272
G1 X180.268 Y156.958 E11.10599
G1 X177.929 Y158.354 E11.19658
G1 X176.181 Y158.641 E11.2555
G1 X165.52 Y158.666 E11.61009
G1 X163.992 Y158.418 E11.66158
G1 X161.822 Y157.454 E11.74055
G1 X161.699 Y157.369 E11.74552
G1 X160.027 Y155.669 E11.82483
G1 X158.707 Y153.477 E11.90994
G1 X158.288 Y151.298 E11.98374
G1 X158.29 Y146.314 E12.14951
G1 X150.972 Y146.315 E12.3929
G1 X150.927 Y150.648 E12.53703
G1 X150.714 Y151.988 E12.58216
G1 X149.821 Y153.966 E12.65434
G1 X149.46 Y154.5 E12.67578
G1 X147.948 Y155.977 E12.74608
G1 X145.795 Y157.274 E12.82968
G1 X143.555 Y157.713 E12.9056
G1 X137.53 Y157.641 E13.106
G1 X136.199 Y157.43 E13.15083
G1 X133.926 Y156.419 E13.23357
G1 X132.205 Y154.669 E13.3152
G1 X130.887 Y152.477 E13.40027
G1 X130.466 Y150.287 E13.47445
G1 X130.469 Y148.022 E13.54978
G1 X128.324 Y150.097 E13.64904
G1 X126.703 Y151.377 E13.71774
G1 X125.389 Y152.247 E13.77015
G1 X123.215 Y153.42 E13.85232
G1 X121.851 Y154.006 E13.90169
G1 X119.35 Y154.818 E13.98915
G1 X118.047 Y155.12 E14.03364
G1 X115.266 Y155.496 E14.12697
G1 X113.647 Y155.551 E14.18085
G1 X88.036 Y155.556 E15.03268
G1 X86.696 Y155.496 E15.07729
G1 X83.907 Y155.103 E15.17097
G1 X82.099 Y154.659 E15.23289
G1 X80.234 Y154.026 E15.2984
G1 X78.154 Y153.106 E15.37404
G1 X76.881 Y152.407 E15.42235
G1 X74.696 Y150.922 E15.51022
G1 X73.491 Y149.933 E15.56207
G1 X71.708 Y148.181 E15.64521
G1 X70.758 Y147.065 E15.69395
G1 X69.223 Y144.9 E15.78222
G1 X68.472 Y143.595 E15.8323
G1 X67.388 Y141.236 E15.91865
G1 X66.863 Y139.746 E15.97119
G1 X66.294 Y137.523 E16.04751
G1 X65.992 Y135.633 E16.11117
G1 X61.12 Y93.532 E17.5208
G1 X61.212 Y91.469 E17.58949
G1 X61.495 Y88.958 E17.67353
G1 X61.829 Y87.121 E17.73563
G1 X62.39 Y84.892 E17.81208
G1 X63.254 Y82.299 E17.90299
G1 X63.989 Y80.525 E17.96685
G1 X65.133 Y78.232 E18.05208
G1 X66.298 Y76.275 E18.12783
G1 X67.696 Y74.274 E18.20902
G1 X69.058 Y72.59 E18.28106
G1 X70.86 Y70.659 E18.3689
G0 F3600 X71.133 Y70.952
G1 F1800 X72.436 Y69.738 E18.42814
G1 X74.576 Y68.015 E18.51952
G1 X76.256 Y66.854 E18.58744
G1 X78.177 Y65.711 E18.66179
G1 X80.57 Y64.517 E18.75074
G1 X82.214 Y63.837 E18.80991
G1 X84.778 Y62.983 E18.89979
G1 X87.006 Y62.422 E18.97621
G1 X88.844 Y62.088 E19.03834
G1 X91.667 Y61.791 E19.13275
G1 X93.679 Y61.728 E19.19971
G1 X108.623 Y61.729 E19.69675
G1 X110.742 Y61.817 E19.76728
G1 X113.179 Y62.091 E19.84885
G1 X115.016 Y62.425 E19.91095
G1 X117.162 Y62.964 E19.98454
G1 X119.646 Y63.783 E20.07154
G1 X121.607 Y64.596 E20.14214
G1 X123.69 Y65.635 E20.21956
G1 X125.795 Y66.89 E20.30108
G1 X127.767 Y68.272 E20.38117
G1 X129.352 Y69.553 E20.44895
G1 X131.084 Y71.169 E20.52774
G1 X131.157 Y70.797 E20.54035
G1 X132.008 Y68.913 E20.6091
G1 X132.313 Y68.471 E20.62697
G1 X133.759 Y67.059 E20.69419
G1 X135.816 Y65.819 E20.77407
G1 X137.95 Y65.402 E20.84639
G1 X143.7 Y65.466 E21.03765
G1 X145.275 Y65.73 E21.09076
G1 X147.298 Y66.728 E21.16579
G1 X149.02 Y68.277 E21.24283
G1 X150.281 Y70.464 E21.32679
G1 X150.564 Y72.34 E21.3899
G1 X150.585 Y76.8 E21.53824
G1 X158.709 Y76.799 E21.80844
G1 X158.754 Y71.129 E21.99703
G1 X158.957 Y69.849 E22.04014
G1 X159.915 Y67.695 E22.11855
G1 X161.578 Y66.059 E22.19614
G1 X163.668 Y64.802 E22.27725
G1 X165.763 Y64.402 E22.34819
G1 X176.139 Y64.481 E22.69331
G1 X177.581 Y64.733 E22.742
G1 X179.598 Y65.728 E22.8168
G1 X181.318 Y67.275 E22.89375
G1 X182.58 Y69.463 E22.97776
G1 X182.863 Y71.335 E23.04073
G1 X182.884 Y76.799 E23.22246
G1 X191.01 Y76.8 E23.49273
G1 X191.054 Y72.129 E23.6481
G1 X191.257 Y70.849 E23.6912
G1 X192.215 Y68.695 E23.76961
G1 X193.878 Y67.059 E23.8472
G1 X195.968 Y65.802 E23.92832
G1 X198.07 Y65.402 E23.99949
G1 X203.999 Y65.468 E24.1967
G1 X205.267 Y65.672 E24.23941
G1 X207.437 Y66.638 E24.31842
G1 X209.047 Y68.273 E24.39474
G1 X210.315 Y70.375 E24.47638
G1 X210.719 Y72.439 E24.54634
G1 X210.657 Y91.39 E25.17665
G1 X210.453 Y92.673 E25.21986
G1 X209.705 Y94.352 E25.281
G1 X208.486 Y95.913 E25.34687
G1 X207.79 Y96.478 E25.37669
G1 X205.933 Y97.549 E25.44799
G1 X203.864 Y97.965 E25.51818
G1 X197.831 Y97.964 E25.71884
G1 X197.832 Y124.75 E26.60974
G1 X203.903 Y124.749 E26.81167
G1 X205.862 Y125.152 E26.87819
G1 X207.635 Y126.153 E26.94591
G1 X208.49 Y126.824 E26.98206
G1 X209.527 Y128.114 E27.03711
G1 X210.477 Y130.03 E27.10824
G1 X210.722 Y132.158 E27.17948
G1 X210.653 Y150.585 E27.79237
G1 X210.449 Y151.87 E27.83564
G1 X209.577 Y153.801 E27.90611
G1 X209.272 Y154.243 E27.92398
G1 X207.826 Y155.655 E27.9912
G1 X205.769 Y156.895 E28.07108
G1 X203.637 Y157.312 E28.14334
G1 X197.715 Y157.246 E28.34031
G1 X196.435 Y157.043 E28.38342
G1 X194.281 Y156.085 E28.46183
G1 X192.645 Y154.422 E28.53942
G1 X191.387 Y152.332 E28.62055
G1 X190.988 Y150.258 E28.6908
G1 X190.99 Y145.915 E28.83525
G1 X182.877 Y145.915 E29.10509
G1 X182.832 Y151.585 E29.29368
G1 X182.628 Y152.87 E29.33695
G1 X181.676 Y155.012 E29.41492
G1 X180.02 Y156.641 E29.49218
G1 X177.791 Y157.971 E29.57851
G1 X176.116 Y158.246 E29.63496
G1 X165.584 Y158.271 E29.98526
G1 X164.108 Y158.031 E30.035
G1 X161.984 Y157.088 E30.11229
G1 X160.345 Y155.422 E30.19002
G1 X159.087 Y153.332 E30.27116
G1 X158.688 Y151.258 E30.3414
G1 X158.69 Y145.914 E30.51915
G1 X150.576 Y145.915 E30.78902
G1 X150.532 Y150.585 E30.94435
G1 X150.328 Y151.87 E30.98763
G1 X149.456 Y153.801 E31.0581
G1 X149.151 Y154.243 E31.07596
G1 X147.705 Y155.655 E31.14318
G1 X145.648 Y156.895 E31.22306
G1 X143.516 Y157.312 E31.29532
G1 X137.593 Y157.246 E31.49233
G1 X136.313 Y157.043 E31.53543
G1 X134.159 Y156.085 E31.61384
G1 X132.523 Y154.422 E31.69143
G1 X131.266 Y152.332 E31.77255
G1 X130.866 Y150.249 E31.8431
G1 X130.87 Y146.901 E31.95445
G1 X129.988 Y147.931 E31.99955
G1 X128.076 Y149.783 E32.08809
G1 X126.482 Y151.043 E32.15567
G1 X125.168 Y151.913 E32.20808
G1 X123.057 Y153.052 E32.28786
G1 X121.693 Y153.638 E32.33724
G1 X119.26 Y154.428 E32.42232
G1 X117.957 Y154.73 E32.46681
G1 X115.252 Y155.096 E32.5576
G1 X113.647 Y155.151 E32.61101
G1 X88.054 Y155.156 E33.46224
G1 X86.714 Y155.096 E33.50685
G1 X84.002 Y154.714 E33.59794
G1 X82.227 Y154.28 E33.65872
G1 X80.396 Y153.66 E33.72301
G1 X78.347 Y152.755 E33.79751
G1 X77.074 Y152.056 E33.84582
G1 X74.95 Y150.613 E33.93122
G1 X73.745 Y149.624 E33.98307
G1 X72.013 Y147.922 E34.06384
G1 X71.063 Y146.806 E34.11258
G1 X69.57 Y144.7 E34.19845
G1 X68.819 Y143.395 E34.24852
G1 X67.765 Y141.103 E34.33243
G1 X67.251 Y139.647 E34.38379
G1 X66.682 Y137.424 E34.46011
G1 X66.389 Y135.587 E34.52198
G1 X61.52 Y93.55 E35.92948
G1 X61.61 Y91.514 E35.99727
G1 X61.889 Y89.03 E36.0804
G1 X62.223 Y87.193 E36.1425
G1 X62.778 Y84.99 E36.21807
G1 X63.624 Y82.452 E36.30705
G1 X64.359 Y80.678 E36.37091
G1 X65.477 Y78.437 E36.45421
G1 X66.642 Y76.48 E36.52996
G1 X68.007 Y74.526 E36.60924
G1 X69.369 Y72.842 E36.68127
G1 X71.133 Y70.952 E36.76726
G0 F3600 X71.406 Y71.245
G1 F1800 X72.709 Y70.031 E36.82649
G1 X74.803 Y68.344 E36.91593
G1 X76.461 Y67.198 E36.98297
G1 X78.382 Y66.055 E37.05732
G1 X80.723 Y64.887 E37.14433
G1 X82.367 Y64.207 E37.2035
G1 X84.876 Y63.371 E37.29146
G1 X87.078 Y62.816 E37.36699
G1 X88.916 Y62.482 E37.42913
G1 X91.68 Y62.191 E37.52156
G1 X93.679 Y62.128 E37.58808
G1 X108.606 Y62.129 E38.08456
G1 X110.725 Y62.217 E38.1551
G1 X113.107 Y62.485 E38.23482
G1 X114.944 Y62.819 E38.29692
G1 X117.064 Y63.352 E38.36963
G1 X119.493 Y64.153 E38.4547
G1 X121.454 Y64.966 E38.5253
G1 X123.485 Y65.979 E38.60079
G1 X125.565 Y67.218 E38.68132
G1 X127.537 Y68.6 E38.76141
G1 X129.1 Y69.864 E38.82827
G1 X130.912 Y71.555 E38.9107
G1 X131.353 Y72.029 E38.93223
G1 X131.522 Y70.962 E38.96816
G1 X132.373 Y69.078 E39.03692
G1 X132.62 Y68.731 E39.05109
G1 X134.004 Y67.379 E39.11544
G1 X135.963 Y66.198 E39.19152
G1 X137.989 Y65.802 E39.26018
G1 X143.634 Y65.861 E39.44795
G1 X145.151 Y66.115 E39.4991
G1 X147.072 Y67.063 E39.57035
G1 X148.706 Y68.533 E39.64346
G1 X149.896 Y70.596 E39.72267
G1 X150.168 Y72.4 E39.78335
G1 X150.186 Y77.2 E39.943
G1 X159.106 Y77.199 E40.23968
G1 X159.149 Y71.192 E40.43948
G1 X159.344 Y69.963 E40.48086
G1 X160.25 Y67.926 E40.55501
G1 X161.823 Y66.379 E40.62839
G1 X163.813 Y65.182 E40.70563
G1 X165.8 Y64.802 E40.77292
G1 X176.07 Y64.875 E41.11451
G1 X177.455 Y65.117 E41.16127
G1 X179.372 Y66.063 E41.23237
G1 X181.004 Y67.531 E41.30538
G1 X182.196 Y69.597 E41.38471
G1 X182.463 Y71.337 E41.44326
G1 X182.485 Y77.199 E41.63824
G1 X191.407 Y77.2 E41.93498
G1 X191.449 Y72.192 E42.10156
G1 X191.644 Y70.963 E42.14294
G1 X192.55 Y68.926 E42.21709
G1 X194.123 Y67.379 E42.29047
G1 X196.113 Y66.182 E42.36771
G1 X198.106 Y65.802 E42.4352
G1 X203.935 Y65.863 E42.62908
G1 X205.153 Y66.059 E42.67011
G1 X207.204 Y66.972 E42.74478
G1 X208.73 Y68.522 E42.81713
G1 X209.935 Y70.519 E42.8947
G1 X210.319 Y72.48 E42.96116
G1 X210.262 Y91.327 E43.58802
G1 X210.066 Y92.559 E43.62951
G1 X209.36 Y94.145 E43.68725
G1 X208.2 Y95.63 E43.74993
G1 X207.59 Y96.131 E43.77618
G1 X205.788 Y97.17 E43.84537
G1 X203.825 Y97.565 E43.91196
G1 X197.431 Y97.564 E44.12463
G1 X197.432 Y125.15 E45.04214
G1 X203.861 Y125.149 E45.25597
G1 X205.72 Y125.531 E45.3191
G1 X207.388 Y126.468 E45.38273
G1 X208.206 Y127.11 E45.41731
G1 X209.189 Y128.333 E45.4695
G1 X210.088 Y130.145 E45.53678
G1 X210.322 Y132.157 E45.60415
G1 X210.258 Y150.522 E46.21497
G1 X210.063 Y151.752 E46.2564
G1 X209.212 Y153.636 E46.32515
G1 X208.965 Y153.983 E46.33932
G1 X207.581 Y155.335 E46.40367
G1 X205.622 Y156.516 E46.47975
G1 X203.598 Y156.912 E46.54835
G1 X197.778 Y156.851 E46.74193
G1 X196.549 Y156.656 E46.78332
G1 X194.512 Y155.75 E46.85747
G1 X192.965 Y154.177 E46.93085
G1 X191.767 Y152.187 E47.00811
G1 X191.388 Y150.218 E47.0748
G1 X191.39 Y145.515 E47.23122
G1 X182.48 Y145.515 E47.52757
G1 X182.437 Y151.522 E47.72737
G1 X182.241 Y152.754 E47.76886
G1 X181.34 Y154.782 E47.84267
G1 X179.774 Y156.322 E47.91572
G1 X177.653 Y157.588 E47.99787
G1 X176.051 Y157.851 E48.05187
G1 X165.648 Y157.876 E48.39788
G1 X164.224 Y157.644 E48.44586
G1 X162.214 Y156.752 E48.519
G1 X160.665 Y155.177 E48.59248
G1 X159.467 Y153.187 E48.66973
G1 X159.088 Y151.218 E48.73642
G1 X159.09 Y145.514 E48.92614
G1 X150.179 Y145.515 E49.22252
G1 X150.137 Y150.522 E49.38906
G1 X149.942 Y151.752 E49.43048
G1 X149.091 Y153.636 E49.49924
G1 X148.844 Y153.983 E49.51341
G1 X147.46 Y155.335 E49.57776
G1 X145.501 Y156.516 E49.65384
G1 X143.477 Y156.912 E49.72243
G1 X137.656 Y156.851 E49.91605
G1 X136.427 Y156.656 E49.95744
G1 X134.39 Y155.75 E50.03159
G1 X132.843 Y154.177 E50.10497
G1 X131.646 Y152.187 E50.18221
G1 X131.266 Y150.21 E50.24917
G1 X131.272 Y145.663 E50.4004
G1 X130.58 Y146.625 E50.43981
G1 X129.684 Y147.671 E50.48562
G1 X127.828 Y149.469 E50.57157
G1 X126.261 Y150.709 E50.63803
G1 X124.947 Y151.579 E50.69045
G1 X122.899 Y152.684 E50.76785
G1 X121.535 Y153.27 E50.81722
G1 X119.17 Y154.038 E50.89993
G1 X117.867 Y154.34 E50.94442
G1 X115.238 Y154.696 E51.03265
G1 X113.647 Y154.751 E51.0856
G1 X88.072 Y154.756 E51.93623
G1 X86.732 Y154.696 E51.98084
G1 X84.097 Y154.325 E52.06935
G1 X82.355 Y153.901 E52.12898
G1 X80.557 Y153.294 E52.1921
G1 X78.54 Y152.404 E52.26542
G1 X77.267 Y151.705 E52.31373
G1 X75.204 Y150.304 E52.39667
G1 X73.999 Y149.315 E52.44852
G1 X72.318 Y147.663 E52.52691
G1 X71.368 Y146.547 E52.57565
G1 X69.917 Y144.5 E52.65911
G1 X69.166 Y143.195 E52.70919
G1 X68.142 Y140.97 E52.79065
G1 X67.639 Y139.548 E52.84082
G1 X67.07 Y137.325 E52.91714
G1 X66.786 Y135.541 E52.97722
G1 X61.92 Y93.568 E54.3826
G1 X62.01 Y91.532 E54.45038
G1 X62.283 Y89.102 E54.53171
G1 X62.617 Y87.265 E54.59381
G1 X63.166 Y85.088 E54.66849
G1 X63.994 Y82.605 E54.75554
G1 X64.729 Y80.831 E54.81941
G1 X65.821 Y78.642 E54.90077
G1 X66.986 Y76.685 E54.97653
G1 X68.318 Y74.778 E55.05389
G1 X69.68 Y73.094 E55.12593
G1 X71.406 Y71.245 E55.21006
G0 F3600 X71.679 Y71.538
G1 F1800 X72.982 Y70.324 E55.26929
G1 X75.031 Y68.673 E55.35681
G1 X76.666 Y67.542 E55.42293
G1 X78.587 Y66.399 E55.49728
